X: 535
T: Abbey, The
R: reel
M: 4/4
K: Adorian
A3B A2GE|A2GA BddB|A3B AGED|G3A BddB|
A3B A2GE|A2GA BddB|AcBA AGED|G3A Bdd2||
eg g2 a3a|gabg aged|eg g2 a2ga|bgab ged2|
eg g2 agg2|agbg aged|eggb a2ga|bgab gedB||

